src/Icon/svgs/NoticeOutline.svg

<svg width="24" height="24" viewBox="0 0 24 24" fill="none" xmlns="http://www.w3.org/2000/svg">
<path fill-rule="evenodd" clip-rule="evenodd" d="M22 11C22 9.13612 20.7252 7.57002 19 7.12598V2.99996C19 2.22266 18.152 1.74255 17.4855 2.14246L12.723 4.99996L8 5C4.68629 5 2 7.68629 2 11C2 13.973 4.16229 16.441 7 16.917V20C7 20.5522 7.44772 21 8 21H10C10.5523 21 11 20.5522 11 20V17H12.723L17.4855 19.8575C18.152 20.2574 19 19.7773 19 19V14.8739C20.7252 14.4299 22 12.8638 22 11ZM7.98382 15L13 15C13.1812 15 13.3591 15.0492 13.5145 15.1425L17 17.2338V4.76615L13.5145 6.85745C13.3591 6.9507 13.1812 6.99996 13 6.99996L8 7C5.79086 7 4 8.79086 4 11C4 13.2037 5.78213 14.9913 7.98382 15ZM20 11C20 11.7402 19.5978 12.3866 19 12.7324V9.26752C19.5978 9.61333 20 10.2597 20 11Z" fill="#1B1C1D"/>
</svg>

<svg xmlns="http://www.w3.org/2000/svg" width="24" height="24" fill="none"><path fill-rule="evenodd" d="M22 11c0-1.864-1.275-3.43-3-3.874V3a1 1 0 0 0-1.515-.858L12.723 5H8a6 6 0 0 0-6 6c0 2.973 2.162 5.441 5 5.917V20a1 1 0 0 0 1 1h2a1 1 0 0 0 1-1v-3h1.723l4.762 2.858A1 1 0 0 0 19 19v-4.126c1.725-.444 3-2.01 3-3.874zM7.984 15H13a1 1 0 0 1 .515.143L17 17.234V4.766l-3.485 2.091A1 1 0 0 1 13 7H8a4 4 0 1 0-.016 8zM20 11a2 2 0 0 1-1 1.732V9.268A2 2 0 0 1 20 11z" fill="#1B1C1D"/></svg>
